public/dokumentasi/Sayap_kanan.svg

<svg width="569" height="260" viewBox="0 0 569 260" fill="none" xmlns="http://www.w3.org/2000/svg">
<path d="M245.012 75.0146C242.143 74.9593 239.434 74.1632 237.472 72.7363V72.7353C235.092 71.002 233.844 68.4238 233.883 64.8476C233.901 63.2679 234.535 61.7751 235.398 60.9531C235.863 60.5156 236.453 60.1966 237.22 60.3769C237.251 60.3846 237.281 60.3932 237.31 60.4023C237.519 62.0829 238.72 63.6833 240.621 63.8115L240.633 63.8125C242.832 63.9425 244.306 62.0553 244.402 60.1074C244.585 56.4759 242.304 53.5418 238.739 52.6972H238.737C235.839 52.0158 232.973 52.8805 230.74 55.0029L230.737 55.0058C228.867 56.794 227.607 59.2893 227.064 61.9668C227.061 61.97 227.059 61.9732 227.056 61.9765L227.055 61.9756C220.918 69.8417 215.997 73.4959 211.069 74.4424H211.067C203.109 75.98 194.038 73.7603 184.054 67.5351L184.053 67.5341C180.28 65.1885 176.837 62.0853 173.069 58.6875C167.721 53.8649 161.94 48.6277 154.88 45.9687V45.9345L153.856 45.5927C151.028 44.6491 147.954 44.3444 144.951 44.7695C145.362 44.3368 145.793 43.9141 146.25 43.5039C149.796 40.3206 153.704 39.6544 157.946 40.2861C161.741 40.8514 165.708 42.441 169.803 44.2099L171.567 44.9765L171.57 44.9775L173.298 45.7275C173.871 45.9748 174.44 46.2187 175.005 46.456L175.007 46.457C191.53 53.367 209.227 52.3204 223.503 43.5009C228.593 40.3569 233.321 36.4871 237.825 32.6845L239.742 31.0615C247.015 24.8912 253.684 19.2527 261.544 15.8847C283.823 6.34693 302.756 19.1664 320.957 33.8974C345.292 53.5948 378.499 56.8459 421.999 44.3633L424.079 43.7568C431.389 41.5932 438.806 39.122 445.945 36.7461C461.624 31.5213 477.707 26.1761 493.569 23.6758C504.907 21.8881 516.033 22.5825 527.171 25.8125C526.453 25.7884 525.731 25.7763 525.004 25.7763C518.38 25.7764 511.416 26.7654 504.167 28.7461C498.357 30.3276 492.432 32.5396 486.554 35.3193H486.553C482.64 37.1723 478.671 39.1261 474.768 41.0654L470.891 42.9961C460.492 48.1841 449.804 53.5078 439.093 57.7304C429.588 61.4777 419.83 64.0729 410.108 65.4414C393.565 67.7721 376.577 66.6176 359.6 62.0068V62.0058C351.555 59.8253 343.229 56.6948 334.869 52.7177C332.957 51.8016 331.079 50.8593 329.201 49.9179V49.917C320.189 45.3902 311.283 40.9068 300.462 41.0937H300.461C290.956 41.2636 281.844 45.087 273.383 52.2968H273.382C270.061 55.13 267.129 58.6452 264.381 61.9258L264.38 61.9267C260.564 66.4912 257.152 70.5342 253.072 72.997L253.073 72.998C250.773 74.3839 247.877 75.0698 245.012 75.0146Z" fill="url(#paint0_linear_309_6957)" fill-opacity="0.4" stroke="url(#paint1_linear_309_6957)" stroke-width="2.99857"/>
<path d="M303.061 107.645C293.65 108.764 283.627 102.839 278.878 93.0176L278.877 93.0157C277.106 89.3634 275.933 84.9627 275.414 79.9053L275.318 78.8848C275.009 75.2223 275.773 69.7944 277.543 64.7354C279.33 59.6259 282.008 55.2797 285.242 53.379L285.259 53.3702L285.275 53.3594C285.407 53.2774 285.543 53.1822 285.679 53.0704C290.558 50.4387 295.538 49.0564 300.588 48.9678C309.652 48.8045 317.539 52.7135 326.239 57.087L329.115 58.5245C330.08 59.0026 331.053 59.4786 332.035 59.9483L332.038 59.9493L333.671 60.7159C341.832 64.494 349.972 67.4985 357.897 69.6553C375.162 74.3526 392.479 75.6392 409.399 73.4796L411.035 73.2598C420.636 71.9048 430.257 69.4173 439.649 65.8712L441.524 65.1475C452.53 60.8089 463.408 55.3818 473.859 50.17C478.969 47.6202 484.236 44.9929 489.392 42.5547C494.583 40.1015 499.791 38.1262 504.885 36.669L505.902 36.3848C518.401 32.9767 529.723 32.7604 539.608 35.6426H539.61C539.786 35.6937 539.962 35.7471 540.138 35.8008C540.128 35.8008 540.118 35.7999 540.108 35.7999C529.018 35.7999 517.652 37.5261 506.32 40.9883L505.259 41.3126V41.334C491.096 45.9024 478.591 54.7328 466.71 63.1182L466.709 63.1172C452.979 72.8016 440.288 81.734 425.379 85.1446L424.667 85.3028C404.974 89.5664 386.201 88.8512 367.306 83.1299L365.477 82.5606C358.218 80.2356 350.634 76.916 340.861 71.7501C338.885 70.7056 336.947 69.5238 334.834 68.2432V68.2442C329.666 65.1091 324.036 61.6688 317.69 60.5333V60.5323C313.652 59.807 308.348 60.2089 303.63 62.1592C298.886 64.1198 294.59 67.7152 292.923 73.4512C292.2 75.9333 292.176 78.7755 292.69 81.4415C293.204 84.1055 294.278 86.7116 295.872 88.6915H295.873C296.959 90.0465 298.537 91.0476 300.191 91.6329C301.847 92.2188 303.707 92.4334 305.41 92.0753L305.413 92.0743C307.959 91.5319 309.86 89.7942 310.76 87.3028L310.76 87.3018C311.417 85.4804 310.762 83.1869 308.92 82.2696C306.931 81.2793 304.867 82.4631 304.16 84.3321C304.135 84.3408 304.1 84.3502 304.053 84.3604C303.628 84.4478 303.008 84.3779 302.36 84.1407C301.68 83.8916 301.286 83.5788 301.21 83.4825L301.208 83.4786C300.514 82.6121 299.949 81.298 299.661 79.8419C299.373 78.3865 299.394 76.9518 299.709 75.8741L299.71 75.8692C300.569 72.901 303.084 70.7679 306.329 69.4737C306.548 69.5235 306.785 69.5538 307.036 69.5538C310.719 69.5538 313.572 70.8964 315.676 73.5108L315.915 73.8174C318.347 77.0447 319.741 82.2073 319.47 87.7813V87.7823C319.236 92.6576 317.221 97.4024 314.179 101.053C311.132 104.71 307.149 107.161 303.062 107.645H303.061Z" fill="url(#paint2_linear_309_6957)" fill-opacity="0.4" stroke="url(#paint3_linear_309_6957)" stroke-width="2.99857"/>
<path d="M157.326 180.957C153.531 181.798 149.71 181.612 146.673 180.358L146.673 180.357C142.988 178.832 140.524 175.834 139.437 171.113C138.958 169.027 139.317 166.861 140.191 165.504C140.665 164.779 141.343 164.169 142.412 164.164C142.454 164.165 142.495 164.167 142.534 164.17C143.345 166.316 145.436 168.041 147.979 167.605L147.987 167.603L147.996 167.602C150.932 167.073 152.271 164.12 151.778 161.525C150.863 156.684 146.927 153.547 141.963 153.57L141.96 153.57C137.927 153.595 134.43 155.646 132.165 159.151L132.162 159.156C130.269 162.106 129.404 165.793 129.541 169.491C129.539 169.496 129.536 169.5 129.534 169.505L129.532 169.504C123.955 181.815 118.639 188.193 112.451 191.007L112.449 191.009C102.461 195.566 89.8109 195.53 74.6834 190.511L74.6813 190.511C68.9673 188.623 63.4466 185.634 57.4035 182.36L57.4032 182.359C48.8266 177.711 39.5487 172.655 29.407 171.401L29.3962 171.356L27.9386 171.232C23.9143 170.89 19.7672 171.467 15.9479 172.984C16.2645 172.435 16.5986 171.89 16.9557 171.35L17.2574 170.903C20.9136 165.583 25.8485 163.462 31.6344 162.943C37.5512 162.413 44.1877 163.574 51.061 164.784L51.0662 164.785L53.5799 165.221C54.4126 165.364 55.2397 165.505 56.0596 165.637L56.0627 165.637L57.1845 165.81C80.7329 169.256 103.235 162.214 118.975 146.31C125.49 139.728 131.083 132.048 136.397 124.764L136.397 124.763C143.772 114.649 150.559 105.374 159.411 98.4977L160.274 97.8401C186.571 78.1911 215.58 89.0444 244.233 102.647C283.153 121.126 328.726 114.343 383.15 82.8074C392.088 77.6316 401.066 72.0173 409.71 66.6164L409.71 66.6153C428.692 54.7456 448.167 42.5895 468.255 34.2489L468.256 34.2487C482.618 28.2855 497.489 25.6574 513.184 26.3659C512.23 26.563 511.273 26.7766 510.315 27.0081C501.594 29.1164 492.739 32.6352 483.825 37.5501L483.824 37.5494C476.677 41.481 469.581 46.281 462.725 51.8124L462.724 51.8127C456.64 56.7266 450.483 61.9075 444.546 66.905L444.546 66.9059C432.505 77.0469 420.127 87.4579 407.368 96.4269C396.046 104.386 384.022 110.908 371.657 115.805C350.617 124.139 327.883 128.026 304.062 127.358L304.061 127.358C293.48 127.067 282.307 125.754 270.838 123.469L268.541 122.999C267.137 122.7 265.742 122.39 264.352 122.074L260.186 121.116C246.88 118.024 233.728 114.956 219.541 118.646L219.54 118.646C207.078 121.896 196.296 129.829 187.45 142.015L187.451 142.016C183.979 146.804 181.236 152.365 178.663 157.559L178.663 157.561C175.091 164.786 171.886 171.195 167.297 175.737C164.71 178.293 161.115 180.118 157.326 180.957Z" fill="url(#paint4_linear_309_6957)" fill-opacity="0.4" stroke="url(#paint5_linear_309_6957)" stroke-width="4.06188"/>
<path d="M244.145 205.444C232.11 209.913 217.026 205.304 207.646 193.883L207.645 193.881C203.918 189.353 200.816 183.487 198.462 176.408L198.462 176.407C196.889 171.683 196.167 164.293 196.888 157.069C197.615 149.772 199.758 143.198 203.411 139.666L203.43 139.649L203.447 139.63C203.597 139.478 203.75 139.306 203.896 139.111C209.479 134.098 215.594 130.696 222.211 128.973L222.212 128.973C233.352 126.066 244.268 128.202 256.175 130.944L258.57 131.499C261.385 132.154 264.226 132.811 267.112 133.422L267.117 133.423C279.101 135.934 290.829 137.437 302.023 137.894L304.254 137.972L306.596 138.025C329.977 138.411 352.388 134.578 373.282 126.614L375.367 125.805C387.985 120.803 400.244 114.203 411.812 106.198L412.93 105.419C424.402 97.3548 435.479 88.2253 446.176 79.2432L450.737 75.4059C456.653 70.4222 462.753 65.2865 468.766 60.4351C474.819 55.553 481.048 51.2956 487.291 47.7557L488.54 47.057C503.912 38.5911 518.752 34.702 532.684 35.3509L532.686 35.3514L533.43 35.3906C533.418 35.3936 533.404 35.3957 533.392 35.3988C518.789 38.9288 504.373 44.8203 490.555 52.9856L489.261 53.7496L489.267 53.7752C472.073 64.2982 458.42 79.9076 445.445 94.7304L445.444 94.7297C430.21 112.123 416.141 128.152 397.149 137.322L397.148 137.323C371.783 149.588 346.022 154.556 318.344 152.552L318.343 152.551C308.046 151.8 297.003 149.843 282.49 146.151C279.557 145.405 276.628 144.468 273.439 143.455L273.439 143.454C265.636 140.971 257.128 138.233 248.411 138.757L248.411 138.757C242.863 139.087 236.008 141.305 230.415 145.375C224.794 149.467 220.281 155.568 219.912 163.652L219.913 163.653C219.752 167.15 220.624 170.899 222.149 174.245C223.674 177.589 225.918 180.679 228.647 182.778C230.508 184.217 232.904 185.032 235.268 185.276C237.636 185.52 240.153 185.211 242.281 184.198L242.285 184.196C245.466 182.671 247.416 179.778 247.807 176.211L247.807 176.21C248.091 173.603 246.499 170.792 243.782 170.17C240.848 169.499 238.506 171.714 238.17 174.4C238.14 174.419 238.098 174.444 238.041 174.472C237.508 174.723 236.669 174.826 235.74 174.72C234.765 174.609 234.148 174.322 234.016 174.22L234.011 174.216C232.822 173.296 231.661 171.745 230.818 169.92C229.976 168.095 229.546 166.199 229.617 164.679L229.618 164.674C229.804 160.494 232.433 156.882 236.292 154.145C236.598 154.141 236.921 154.107 237.254 154.026C242.103 152.854 246.287 153.713 249.889 156.486L249.89 156.487L250.302 156.814C254.531 160.289 258.01 166.643 259.429 174.068L259.429 174.069C260.673 180.563 259.528 187.452 256.684 193.226C253.836 199.012 249.373 203.507 244.146 205.444L244.145 205.444Z" fill="url(#paint6_linear_309_6957)" fill-opacity="0.4" stroke="url(#paint7_linear_309_6957)" stroke-width="4.06188"/>
<defs>
<linearGradient id="paint0_linear_309_6957" x1="541.12" y1="43.8062" x2="140.977" y2="43.8062" gradientUnits="userSpaceOnUse">
<stop stop-color="#FFC446"/>
<stop offset="1" stop-color="#FCF0D6"/>
</linearGradient>
<linearGradient id="paint1_linear_309_6957" x1="541.12" y1="43.8062" x2="140.977" y2="43.8062" gradientUnits="userSpaceOnUse">
<stop stop-color="#FCF0D6"/>
<stop offset="1" stop-color="#FFC446"/>
</linearGradient>
<linearGradient id="paint2_linear_309_6957" x1="549.13" y1="70.7105" x2="273.752" y2="70.7105" gradientUnits="userSpaceOnUse">
<stop stop-color="#FFC446"/>
<stop offset="1" stop-color="#FCF0D6"/>
</linearGradient>
<linearGradient id="paint3_linear_309_6957" x1="549.13" y1="70.7105" x2="273.752" y2="70.7105" gradientUnits="userSpaceOnUse">
<stop stop-color="#FCF0D6"/>
<stop offset="1" stop-color="#FFC446"/>
</linearGradient>
<linearGradient id="paint4_linear_309_6957" x1="537.272" y1="45.619" x2="10.4121" y2="172.979" gradientUnits="userSpaceOnUse">
<stop stop-color="#FFC446"/>
<stop offset="1" stop-color="#FCF0D6"/>
</linearGradient>
<linearGradient id="paint5_linear_309_6957" x1="537.272" y1="45.619" x2="10.4121" y2="172.979" gradientUnits="userSpaceOnUse">
<stop stop-color="#FCF0D6"/>
<stop offset="1" stop-color="#FFC446"/>
</linearGradient>
<linearGradient id="paint6_linear_309_6957" x1="556.382" y1="78.4939" x2="193.798" y2="166.143" gradientUnits="userSpaceOnUse">
<stop stop-color="#FFC446"/>
<stop offset="1" stop-color="#FCF0D6"/>
</linearGradient>
<linearGradient id="paint7_linear_309_6957" x1="556.382" y1="78.4939" x2="193.798" y2="166.143" gradientUnits="userSpaceOnUse">
<stop stop-color="#FCF0D6"/>
<stop offset="1" stop-color="#FFC446"/>
</linearGradient>
</defs>
</svg>

<svg xmlns="http://www.w3.org/2000/svg" width="569" height="260" fill="none" viewBox="0 0 569 260"><path fill="url(#a)" fill-opacity=".4" stroke="url(#b)" stroke-width="3" d="M245.01 75.01c-2.87-.05-5.58-.85-7.54-2.27-2.38-1.74-3.63-4.32-3.59-7.89.02-1.58.65-3.07 1.52-3.9.46-.43 1.05-.75 1.82-.57.03 0 .06.01.09.02.21 1.68 1.41 3.28 3.31 3.41h.01c2.2.13 3.68-1.75 3.77-3.7.19-3.63-2.1-6.57-5.66-7.41-2.9-.68-5.77.18-8 2.3v.01c-1.87 1.78-3.13 4.28-3.68 6.96v.01c-6.14 7.86-11.06 11.52-15.99 12.46-7.96 1.54-17.03-.68-27.02-6.9v-.01c-3.77-2.34-7.21-5.44-10.98-8.84-5.35-4.83-11.13-10.06-18.19-12.72v-.04l-1.02-.34c-2.83-.94-5.91-1.25-8.91-.82.41-.43.84-.86 1.3-1.27 3.55-3.18 7.45-3.85 11.7-3.21 3.79.56 7.76 2.15 11.85 3.92l1.77.77 1.73.75c.57.24 1.14.49 1.7.73h.01c16.52 6.91 34.22 5.86 48.49-2.96 5.09-3.14 9.82-7.01 14.32-10.82l1.92-1.62c7.27-6.17 13.94-11.81 21.8-15.18 22.28-9.53 41.22 3.29 59.42 18.02C345.29 53.59 378.5 56.85 422 44.36l2.08-.6c7.31-2.17 14.73-4.64 21.86-7.01 15.68-5.23 31.77-10.57 47.63-13.07 11.34-1.79 22.46-1.1 33.6 2.13-.72-.02-1.44-.03-2.17-.03-6.62 0-13.58.99-20.83 2.97-5.81 1.58-11.74 3.79-17.62 6.57-3.91 1.85-7.88 3.81-11.78 5.75L470.89 43c-10.4 5.18-21.09 10.51-31.8 14.73-9.5 3.75-19.26 6.34-28.98 7.71-16.55 2.33-33.53 1.18-50.51-3.43-8.04-2.18-16.37-5.32-24.73-9.29-1.91-.92-3.79-1.86-5.67-2.8-9.01-4.53-17.92-9.01-28.74-8.83-9.5.17-18.62 4-27.08 11.21-3.32 2.83-6.25 6.35-9 9.63-3.82 4.56-7.23 8.6-11.31 11.07-2.3 1.38-5.19 2.07-8.06 2.01Z"/><path fill="url(#c)" fill-opacity=".4" stroke="url(#d)" stroke-width="3" d="M303.06 107.64c-9.41 1.12-19.43-4.8-24.18-14.62-1.77-3.66-2.95-8.06-3.47-13.11l-.09-1.03c-.31-3.66.45-9.09 2.22-14.14 1.79-5.11 4.47-9.46 7.7-11.36l.02-.01.01-.01c.14-.08.27-.18.41-.29 4.88-2.63 9.86-4.01 14.91-4.1 9.06-.17 16.95 3.74 25.65 8.12l2.88 1.43c.96.48 1.93.96 2.92 1.43l1.63.77c8.16 3.77 16.3 6.78 24.23 8.94 17.26 4.69 34.58 5.98 51.5 3.82l1.64-.22c9.6-1.36 19.22-3.84 28.61-7.39l1.87-.72c11.01-4.34 21.89-9.77 32.34-14.98 5.11-2.55 10.38-5.18 15.53-7.62 5.19-2.45 10.4-4.42 15.49-5.88l1.02-.29c12.5-3.4 23.82-3.62 33.71-.74.18.05.35.11.53.16h-.03c-11.09 0-22.46 1.73-33.79 5.19l-1.06.32v.02c-14.16 4.57-26.67 13.4-38.55 21.79-13.73 9.68-26.42 18.61-41.33 22.02l-.71.16c-19.7 4.27-38.47 3.55-57.36-2.17l-1.83-.57c-7.26-2.32-14.85-5.64-24.62-10.81-1.98-1.04-3.91-2.23-6.03-3.51-5.16-3.13-10.79-6.57-17.14-7.71-4.04-.72-9.34-.32-14.06 1.63-4.74 1.96-9.04 5.56-10.71 11.29-.72 2.48-.74 5.33-.23 7.99.51 2.67 1.59 5.27 3.18 7.25 1.09 1.36 2.67 2.36 4.32 2.94 1.66.59 3.52.8 5.22.45v-.01c2.55-.54 4.45-2.28 5.35-4.77.66-1.82 0-4.11-1.84-5.03-1.99-.99-4.05.19-4.76 2.06-.03.01-.06.02-.11.03-.42.09-1.04.02-1.69-.22-.68-.25-1.07-.56-1.15-.66-.7-.87-1.26-2.18-1.55-3.64-.29-1.45-.27-2.89.05-3.97.86-2.97 3.37-5.1 6.62-6.4.22.05.46.08.71.08 3.68 0 6.53 1.35 8.64 3.96l.24.31c2.43 3.22 3.82 8.39 3.55 13.96-.23 4.88-2.25 9.62-5.29 13.27-3.05 3.66-7.03 6.11-11.12 6.59Z"/><path fill="url(#e)" fill-opacity=".4" stroke="url(#f)" stroke-width="4.06" d="M157.33 180.96c-3.8.84-7.62.65-10.66-.6-3.68-1.53-6.15-4.53-7.23-9.25-.48-2.08-.12-4.25.75-5.61.47-.72 1.15-1.33 2.22-1.34.04 0 .09.01.12.01.81 2.15 2.91 3.87 5.45 3.43h.02c2.93-.53 4.27-3.48 3.78-6.07-.92-4.85-4.85-7.98-9.82-7.96-4.03.02-7.53 2.08-9.8 5.58v.01c-1.89 2.95-2.76 6.63-2.62 10.33 0 .01 0 .01-.01.01-5.58 12.31-10.89 18.69-17.08 21.51-9.99 4.56-22.64 4.52-37.77-.5-5.71-1.89-11.23-4.88-17.28-8.15-8.57-4.65-17.85-9.7-27.99-10.96l-.01-.04-1.46-.13c-4.03-.34-8.17.24-11.99 1.75.31-.54.65-1.09 1.01-1.63l.3-.45c3.65-5.32 8.59-7.44 14.37-7.96 5.92-.53 12.56.63 19.43 1.84h.01l2.51.44c.83.14 1.66.28 2.48.42l1.12.17c23.55 3.45 46.05-3.6 61.79-19.5 6.52-6.58 12.11-14.26 17.43-21.55 7.37-10.11 14.16-19.39 23.01-26.26l.86-.66c26.3-19.65 55.31-8.8 83.96 4.81 38.92 18.48 84.5 11.69 138.92-19.84 8.94-5.18 17.92-10.79 26.56-16.19 18.98-11.87 38.46-24.03 58.54-32.37h.01c14.36-5.96 29.23-8.59 44.92-7.88-.95.19-1.91.41-2.87.64-8.72 2.11-17.57 5.63-26.49 10.54-7.14 3.93-14.24 8.73-21.09 14.26h-.01c-6.08 4.92-12.24 10.1-18.17 15.1-12.05 10.14-24.42 20.55-37.18 29.52-11.32 7.96-23.35 14.48-35.71 19.38-21.04 8.33-43.78 12.22-67.6 11.55-10.58-.29-21.75-1.61-33.22-3.89l-2.3-.47c-1.4-.3-2.8-.61-4.19-.93l-4.16-.95c-13.31-3.1-26.46-6.16-40.65-2.47-12.46 3.25-23.24 11.18-32.09 23.36v.01c-3.47 4.78-6.21 10.35-8.79 15.54-3.57 7.23-6.77 13.63-11.36 18.18-2.59 2.55-6.18 4.38-9.97 5.22Z"/><path fill="url(#g)" fill-opacity=".4" stroke="url(#h)" stroke-width="4.06" d="M244.15 205.44c-12.04 4.47-27.12-.14-36.5-11.56-3.73-4.53-6.83-10.39-9.19-17.47-1.57-4.73-2.29-12.12-1.57-19.34.73-7.3 2.87-13.87 6.52-17.4l.02-.02.02-.02c.15-.15.3-.32.45-.52 5.58-5.01 11.69-8.41 18.31-10.14 11.14-2.9 22.06-.77 33.97 1.97l2.39.56c2.81.65 5.66 1.31 8.54 1.92h.01c11.98 2.51 23.71 4.02 34.9 4.47l2.23.08 2.35.06c23.38.38 45.79-3.45 66.68-11.42l2.09-.8c12.62-5.01 24.87-11.61 36.44-19.61l1.12-.78c11.47-8.07 22.55-17.19 33.25-26.18l4.56-3.83c5.91-4.99 12.01-10.12 18.03-14.97 6.05-4.89 12.28-9.14 18.52-12.68l1.25-.7c15.37-8.47 30.21-12.36 44.14-11.71h.01l.74.04c-.01 0-.03.01-.04.01-14.6 3.53-29.02 9.42-42.83 17.59l-1.3.76.01.03c-17.2 10.52-30.85 26.13-43.83 40.95-15.23 17.39-29.3 33.42-48.29 42.59-25.37 12.27-51.13 17.24-78.81 15.23-10.29-.75-21.34-2.71-35.85-6.4-2.93-.74-5.86-1.68-9.05-2.69v-.01c-7.8-2.48-16.31-5.22-25.03-4.69-5.55.33-12.4 2.55-18 6.62-5.62 4.09-10.13 10.19-10.5 18.27-.16 3.5.71 7.25 2.24 10.6 1.52 3.34 3.77 6.43 6.5 8.53 1.86 1.44 4.25 2.25 6.62 2.5 2.37.24 4.88-.07 7.01-1.08 3.19-1.53 5.14-4.42 5.53-7.99.28-2.61-1.31-5.42-4.03-6.04-2.93-.67-5.27 1.54-5.61 4.23-.03.02-.07.04-.13.07-.53.25-1.37.36-2.3.25-.98-.11-1.59-.4-1.72-.5h-.01c-1.19-.92-2.35-2.47-3.19-4.3s-1.27-3.72-1.2-5.24v-.01c.18-4.18 2.81-7.79 6.67-10.52.31-.01.63-.04.96-.12 4.85-1.18 9.04-.32 12.64 2.46l.41.32c4.23 3.48 7.71 9.83 9.13 17.26 1.24 6.49.1 13.38-2.75 19.16-2.84 5.78-7.31 10.28-12.53 12.21Z"/><defs><linearGradient id="a" x1="541.12" x2="140.98" y1="43.81" y2="43.81" gradientUnits="userSpaceOnUse"><stop stop-color="#ffc446"/><stop offset="1" stop-color="#fcf0d6"/></linearGradient><linearGradient id="b" x1="541.12" x2="140.98" y1="43.81" y2="43.81" gradientUnits="userSpaceOnUse"><stop stop-color="#fcf0d6"/><stop offset="1" stop-color="#ffc446"/></linearGradient><linearGradient id="c" x1="549.13" x2="273.75" y1="70.71" y2="70.71" gradientUnits="userSpaceOnUse"><stop stop-color="#ffc446"/><stop offset="1" stop-color="#fcf0d6"/></linearGradient><linearGradient id="d" x1="549.13" x2="273.75" y1="70.71" y2="70.71" gradientUnits="userSpaceOnUse"><stop stop-color="#fcf0d6"/><stop offset="1" stop-color="#ffc446"/></linearGradient><linearGradient id="e" x1="537.27" x2="10.41" y1="45.62" y2="172.98" gradientUnits="userSpaceOnUse"><stop stop-color="#ffc446"/><stop offset="1" stop-color="#fcf0d6"/></linearGradient><linearGradient id="f" x1="537.27" x2="10.41" y1="45.62" y2="172.98" gradientUnits="userSpaceOnUse"><stop stop-color="#fcf0d6"/><stop offset="1" stop-color="#ffc446"/></linearGradient><linearGradient id="g" x1="556.38" x2="193.8" y1="78.49" y2="166.14" gradientUnits="userSpaceOnUse"><stop stop-color="#ffc446"/><stop offset="1" stop-color="#fcf0d6"/></linearGradient><linearGradient id="h" x1="556.38" x2="193.8" y1="78.49" y2="166.14" gradientUnits="userSpaceOnUse"><stop stop-color="#fcf0d6"/><stop offset="1" stop-color="#ffc446"/></linearGradient></defs></svg>
